Papirus/64x64/apps/OPNplug.svg

<svg width="64" height="64" version="1" xmlns="http://www.w3.org/2000/svg">
 <rect x="4" y="5" width="56" height="56" rx="2.8" ry="2.8" style="opacity:.2"/>
 <rect x="4" y="4" width="56" height="56" rx="2.8" ry="2.8" style="fill:#c2352a"/>
 <path d="m6.8007812 4c-1.5512 0-2.8007812 1.2495812-2.8007812 2.8007812v1c0-1.5511999 1.2495812-2.8007812 2.8007812-2.8007812h50.398438c1.5512 0 2.800781 1.2495812 2.800781 2.8007812v-1c0-1.5511999-1.249581-2.8007812-2.800781-2.8007812h-50.398438z" style="fill:#ffffff;opacity:.1"/>
 <path d="m51.970703 22.972171a2.0002 2.0002 0 0 0-1.970703 2.027344v7.527344l-4.210938-8.421875a2.0002 2.0002 0 0 0-3.789062 0.894531v16a2.0002 2.0002 0 1 0 4 0v-7.527344l4.210938 8.421875a2.0002 2.0002 0 0 0 3.789062-0.894531v-16a2.0002 2.0002 0 0 0-2.029297-2.027344zm-22.714844 0.01367c-0.243255 0.0068-0.380859 0.01758-0.380859 0.01758a2.0002 2.0002 0 0 0-1.875 1.996094v7.679688a2.0002 2.0002 0 0 0 0 0.638671v7.681641a2.0002 2.0002 0 1 0 4 0v-5.980469c0.734107-0.01343 1.484256-0.01377 2.369141-0.179687 1.19781-0.22459 2.502999-0.626827 3.642578-1.552735 1.139579-0.925907 1.988281-2.503776 1.988281-4.287109 0-1.717593-0.902519-3.226944-2.019531-4.099609-1.117012-0.872666-2.377931-1.284028-3.552735-1.541016-1.762206-0.385483-3.442108-0.393535-4.171875-0.373047zm-11.755859 0.013674c-1.516667 0-2.851124 0.309603-3.921875 1.023438-1.070751 0.713833-1.749471 1.793333-2.099609 2.84375-0.700278 2.100832-0.478516 4.216145-0.478516 6.132812s-0.221762 4.03198 0.478516 6.132812c0.350138 1.050418 1.028858 2.129917 2.099609 2.84375 1.070751 0.713835 2.405208 1.023438 3.921875 1.023438s2.851124-0.309603 3.921875-1.023438c1.070751-0.713833 1.749471-1.793332 2.099609-2.84375 0.700278-2.100832 0.478516-4.216145 0.478516-6.132812s0.221762-4.031981-0.478516-6.132812c-0.350138-1.050417-1.028858-2.129917-2.099609-2.84375-1.070751-0.713835-2.405208-1.023438-3.921875-1.023438zm0 4c0.983333 0 1.461376 0.190397 1.703125 0.351562 0.241749 0.161167 0.375529 0.331667 0.525391 0.78125 0.299722 0.899168 0.271484 2.783855 0.271484 4.867188s0.02824 3.96802-0.271484 4.867188c-0.149862 0.449582-0.283642 0.620083-0.525391 0.78125-0.241749 0.161165-0.719792 0.351562-1.703125 0.351562s-1.461376-0.190397-1.703125-0.351562c-0.241749-0.161167-0.375529-0.331667-0.525391-0.78125-0.299722-0.899168-0.271484-2.783855-0.271484-4.867188s-0.02824-3.968019 0.271484-4.867188c0.149862-0.449583 0.283642-0.620083 0.525391-0.78125 0.241749-0.161165 0.719792-0.351562 1.703125-0.351562zm13.5 0.142578c0.629428 0.02816 0.819533-0.04161 1.572266 0.123047 0.825196 0.180512 1.564277 0.4879 1.947265 0.787109 0.382988 0.29921 0.480469 0.414859 0.480469 0.947266 0 0.716667-0.151298 0.888798-0.511719 1.181641-0.360421 0.292842-1.055232 0.578105-1.857422 0.728515-0.773472 0.145026-0.995125 0.05874-1.630859 0.05078z" style="opacity:.2"/>
 <path d="m51.970703 21.972656a2.0002 2.0002 0 0 0-1.970703 2.027344v7.527344l-4.210938-8.421875a2.0002 2.0002 0 0 0-3.789062 0.894531v16a2.0002 2.0002 0 1 0 4 0v-7.527344l4.210938 8.421875a2.0002 2.0002 0 0 0 3.789062-0.894531v-16a2.0002 2.0002 0 0 0-2.029297-2.027344zm-22.714844 0.013672c-0.243255 0.006829-0.380859 0.017578-0.380859 0.017578a2.0002 2.0002 0 0 0-1.875 1.996094v7.679688a2.0002 2.0002 0 0 0 0 0.638671v7.681641a2.0002 2.0002 0 1 0 4 0v-5.980469c0.734107-0.01343 1.484256-0.01377 2.369141-0.179687 1.19781-0.22459 2.502999-0.626827 3.642578-1.552735 1.139579-0.925907 1.988281-2.503776 1.988281-4.287109 0-1.717593-0.902519-3.226944-2.019531-4.099609-1.117012-0.872666-2.377931-1.284028-3.552735-1.541016-1.762206-0.385483-3.442108-0.393535-4.171875-0.373047zm-11.755859 0.013672c-1.516667 0-2.851124 0.309603-3.921875 1.023438-1.070751 0.713833-1.749471 1.793333-2.099609 2.84375-0.700278 2.100832-0.478516 4.216145-0.478516 6.132812s-0.221762 4.03198 0.478516 6.132812c0.350138 1.050418 1.028858 2.129917 2.099609 2.84375 1.070751 0.713835 2.405208 1.023438 3.921875 1.023438s2.851124-0.309603 3.921875-1.023438c1.070751-0.713833 1.749471-1.793332 2.099609-2.84375 0.700278-2.100832 0.478516-4.216145 0.478516-6.132812s0.221762-4.031981-0.478516-6.132812c-0.350138-1.050417-1.028858-2.129917-2.099609-2.84375-1.070751-0.713835-2.405208-1.023438-3.921875-1.023438zm0 4c0.983333 0 1.461376 0.190397 1.703125 0.351562 0.241749 0.161167 0.375529 0.331667 0.525391 0.78125 0.299722 0.899168 0.271484 2.783855 0.271484 4.867188s0.02824 3.96802-0.271484 4.867188c-0.149862 0.449582-0.283642 0.620083-0.525391 0.78125-0.241749 0.161165-0.719792 0.351562-1.703125 0.351562s-1.461376-0.190397-1.703125-0.351562c-0.241749-0.161167-0.375529-0.331667-0.525391-0.78125-0.299722-0.899168-0.271484-2.783855-0.271484-4.867188s-0.02824-3.968019 0.271484-4.867188c0.149862-0.449583 0.283642-0.620083 0.525391-0.78125 0.241749-0.161165 0.719792-0.351562 1.703125-0.351562zm13.5 0.142578c0.629428 0.02816 0.819533-0.04161 1.572266 0.123047 0.825196 0.180512 1.564277 0.4879 1.947265 0.787109 0.382988 0.29921 0.480469 0.414859 0.480469 0.947266 0 0.716667-0.151298 0.888798-0.511719 1.181641-0.360421 0.292842-1.055232 0.578105-1.857422 0.728515-0.773472 0.145026-0.995125 0.058741-1.630859 0.050782v-3.81836z" style="fill:#f5b0b0"/>
</svg>

<?xml version="1.0" encoding="UTF-8" standalone="no"?>
<svg
   id="_图层_1"
   version="1.1"
   viewBox="0 0 64 64" width="64" height="64"
   sodipodi:docname="OPNplug.svg"
   xml:space="preserve"
   inkscape:version="1.4 (e7c3feb100, 2024-10-09)"
   xmlns:inkscape="http://www.inkscape.org/namespaces/inkscape"
   xmlns:sodipodi="http://sodipodi.sourceforge.net/DTD/sodipodi-0.dtd"
   xmlns="http://www.w3.org/2000/svg"
   xmlns:svg="http://www.w3.org/2000/svg"><sodipodi:namedview
     id="namedview26"
     pagecolor="#505050"
     bordercolor="#eeeeee"
     borderopacity="1"
     inkscape:showpageshadow="0"
     inkscape:pageopacity="0"
     inkscape:pagecheckerboard="0"
     inkscape:deskcolor="#505050"
     inkscape:zoom="10.6875"
     inkscape:cx="32"
     inkscape:cy="32"
     inkscape:window-width="1920"
     inkscape:window-height="939"
     inkscape:window-x="0"
     inkscape:window-y="34"
     inkscape:window-maximized="1"
     inkscape:current-layer="_图层_1"
     showguides="true"><sodipodi:guide
       position="24.129209,43.688782"
       orientation="1,0"
       id="guide47"
       inkscape:locked="false" /><sodipodi:guide
       position="39.990611,54.528988"
       orientation="1,0"
       id="guide48"
       inkscape:locked="false" /><sodipodi:guide
       position="31.294665,46.979418"
       orientation="0,-1"
       id="guide49"
       inkscape:locked="false" /><sodipodi:guide
       position="22.407535,30.743878"
       orientation="0,-1"
       id="guide50"
       inkscape:locked="false" /></sodipodi:namedview><!-- Generator: Adobe Illustrator 29.0.1, SVG Export Plug-In . SVG Version: 2.1.0 Build 192)  --><defs
     id="defs6"><style
       id="style1">
      .st0 {
        fill-opacity: .5;
      }

      .st0, .st1, .st2, .st3, .st4, .st5, .st6, .st7 {
        fill: #fff;
      }

      .st8 {
        fill: #133c9a;
      }

      .st2, .st9 {
        display: none;
      }

      .st3 {
        fill-opacity: .2;
      }

      .st4 {
        fill-opacity: .9;
      }

      .st10 {
        fill: #3370ff;
      }

      .st11 {
        fill: url(#_未命名的渐变_3);
      }

      .st12 {
        fill: url(#_未命名的渐变);
      }

      .st5 {
        fill-opacity: .3;
      }

      .st6 {
        fill-opacity: 0;
      }

      .st7 {
        fill-opacity: .7;
      }

      .st13 {
        fill: #00d6b9;
      }

      .st14 {
        fill: url(#_未命名的渐变_2);
      }
    </style><radialGradient
       id="_未命名的渐变"
       data-name="未命名的渐变"
       cx="123.9"
       cy="-40.2"
       fx="123.9"
       fy="-40.2"
       r="59.4"
       gradientTransform="translate(-26.8 25.5) scale(.6 -.7)"
       gradientUnits="userSpaceOnUse"><stop
         offset="0"
         stop-color="#db202e"
         id="stop1" /><stop
         offset="1"
         stop-color="#e01b24"
         id="stop2" /></radialGradient><radialGradient
       id="_未命名的渐变_2"
       data-name="未命名的渐变 2"
       cx="67.6"
       cy="26.8"
       fx="67.6"
       fy="26.8"
       r="105.2"
       gradientTransform="translate(-26.6 25.3) scale(.6 -.7)"
       gradientUnits="userSpaceOnUse"><stop
         offset="0"
         stop-color="#ffb648"
         id="stop3" /><stop
         offset="1"
         stop-color="#ff7800"
         stop-opacity="0"
         id="stop4" /></radialGradient><radialGradient
       id="_未命名的渐变_3"
       data-name="未命名的渐变 3"
       cx="61.7"
       cy="18.6"
       fx="61.7"
       fy="18.6"
       r="68"
       gradientTransform="translate(-26.8 25.8) scale(.6 -.7)"
       gradientUnits="userSpaceOnUse"><stop
         offset="0"
         stop-color="#c64600"
         id="stop5" /><stop
         offset="1"
         stop-color="#a51d2d"
         id="stop6" /></radialGradient></defs><path
     class="st1"
     d="M47.5,64.1H13.8c-7.6,0-13.8-6.3-13.8-13.8V13.7C0,6.2,6.2,0,13.7,0h36.6c7.5,0,13.7,6.2,13.7,13.7v36.6c0,7.5-6.2,13.7-13.7,13.7h-2.9.1Z"
     id="path6"
     style="fill:#c2352a;fill-opacity:1" /><g
     id="g52"
     transform="matrix(1.1436926,0,0,1.1428132,-4.5045949,-4.6268083)"><path
       d="M 51.970703,22.972171 A 2.0002,2.0002 0 0 0 50,24.999515 v 7.527344 L 45.789062,24.104984 A 2.0002,2.0002 0 0 0 42,24.999515 v 16 a 2.0002,2.0002 0 1 0 4,0 v -7.527344 l 4.210938,8.421875 A 2.0002,2.0002 0 0 0 54,40.999515 v -16 a 2.0002,2.0002 0 0 0 -2.029297,-2.027344 z m -22.714844,0.01367 c -0.243255,0.0068 -0.380859,0.01758 -0.380859,0.01758 A 2.0002,2.0002 0 0 0 27,24.999515 v 7.679688 a 2.0002,2.0002 0 0 0 0,0.638671 v 7.681641 a 2.0002,2.0002 0 1 0 4,0 v -5.980469 c 0.734107,-0.01343 1.484256,-0.01377 2.369141,-0.179687 1.19781,-0.22459 2.502999,-0.626827 3.642578,-1.552735 C 38.151298,32.360717 39,30.782848 39,28.999515 39,27.281922 38.097481,25.772571 36.980469,24.899906 35.863457,24.02724 34.602538,23.615878 33.427734,23.35889 31.665528,22.973407 29.985626,22.965355 29.255859,22.985843 Z M 17.5,22.999515 c -1.516667,0 -2.851124,0.309603 -3.921875,1.023438 -1.070751,0.713833 -1.749471,1.793333 -2.099609,2.84375 C 10.778238,28.967535 11,31.082848 11,32.999515 c 0,1.916667 -0.221762,4.03198 0.478516,6.132812 0.350138,1.050418 1.028858,2.129917 2.099609,2.84375 1.070751,0.713835 2.405208,1.023438 3.921875,1.023438 1.516667,0 2.851124,-0.309603 3.921875,-1.023438 1.070751,-0.713833 1.749471,-1.793332 2.099609,-2.84375 C 24.221762,37.031495 24,34.916182 24,32.999515 24,31.082848 24.221762,28.967534 23.521484,26.866703 23.171346,25.816286 22.492626,24.736786 21.421875,24.022953 20.351124,23.309118 19.016667,22.999515 17.5,22.999515 Z m 0,4 c 0.983333,0 1.461376,0.190397 1.703125,0.351562 0.241749,0.161167 0.375529,0.331667 0.525391,0.78125 C 20.028238,29.031495 20,30.916182 20,32.999515 c 0,2.083333 0.02824,3.96802 -0.271484,4.867188 -0.149862,0.449582 -0.283642,0.620083 -0.525391,0.78125 -0.241749,0.161165 -0.719792,0.351562 -1.703125,0.351562 -0.983333,0 -1.461376,-0.190397 -1.703125,-0.351562 -0.241749,-0.161167 -0.375529,-0.331667 -0.525391,-0.78125 C 14.971762,36.967535 15,35.082848 15,32.999515 c 0,-2.083333 -0.02824,-3.968019 0.271484,-4.867188 0.149862,-0.449583 0.283642,-0.620083 0.525391,-0.78125 C 16.038624,27.189912 16.516667,26.999515 17.5,26.999515 Z M 31,27.142093 c 0.629428,0.02816 0.819533,-0.04161 1.572266,0.123047 0.825196,0.180512 1.564277,0.4879 1.947265,0.787109 C 34.902519,28.351459 35,28.467108 35,28.999515 c 0,0.716667 -0.151298,0.888798 -0.511719,1.181641 -0.360421,0.292842 -1.055232,0.578105 -1.857422,0.728515 -0.773472,0.145026 -0.995125,0.05874 -1.630859,0.05078 z"
       style="opacity:0.2"
       id="path3" /><path
       d="M 51.970703,21.972656 A 2.0002,2.0002 0 0 0 50,24 v 7.527344 L 45.789062,23.105469 A 2.0002,2.0002 0 0 0 42,24 v 16 a 2.0002,2.0002 0 1 0 4,0 v -7.527344 l 4.210938,8.421875 A 2.0002,2.0002 0 0 0 54,40 V 24 a 2.0002,2.0002 0 0 0 -2.029297,-2.027344 z m -22.714844,0.01367 c -0.243255,0.0068 -0.380859,0.01758 -0.380859,0.01758 A 2.0002,2.0002 0 0 0 27,24 v 7.679688 a 2.0002,2.0002 0 0 0 0,0.638671 V 40 a 2.0002,2.0002 0 1 0 4,0 v -5.980469 c 0.734107,-0.01343 1.484256,-0.01377 2.369141,-0.179687 1.19781,-0.22459 2.502999,-0.626827 3.642578,-1.552735 C 38.151298,31.361202 39,29.783333 39,28 39,26.282407 38.097481,24.773056 36.980469,23.900391 35.863457,23.027725 34.602538,22.616363 33.427734,22.359375 31.665528,21.973892 29.985626,21.96584 29.255859,21.986328 Z M 17.5,22 c -1.516667,0 -2.851124,0.309603 -3.921875,1.023438 -1.070751,0.713833 -1.749471,1.793333 -2.099609,2.84375 C 10.778238,27.96802 11,30.083333 11,32 c 0,1.916667 -0.221762,4.03198 0.478516,6.132812 0.350138,1.050418 1.028858,2.129917 2.099609,2.84375 C 14.648876,41.690397 15.983333,42 17.5,42 c 1.516667,0 2.851124,-0.309603 3.921875,-1.023438 1.070751,-0.713833 1.749471,-1.793332 2.099609,-2.84375 C 24.221762,36.03198 24,33.916667 24,32 24,30.083333 24.221762,27.968019 23.521484,25.867188 23.171346,24.816771 22.492626,23.737271 21.421875,23.023438 20.351124,22.309603 19.016667,22 17.5,22 Z m 0,4 c 0.983333,0 1.461376,0.190397 1.703125,0.351562 0.241749,0.161167 0.375529,0.331667 0.525391,0.78125 C 20.028238,28.03198 20,29.916667 20,32 c 0,2.083333 0.02824,3.96802 -0.271484,4.867188 -0.149862,0.449582 -0.283642,0.620083 -0.525391,0.78125 C 18.961376,37.809603 18.483333,38 17.5,38 16.516667,38 16.038624,37.809603 15.796875,37.648438 15.555126,37.487271 15.421346,37.316771 15.271484,36.867188 14.971762,35.96802 15,34.083333 15,32 c 0,-2.083333 -0.02824,-3.968019 0.271484,-4.867188 0.149862,-0.449583 0.283642,-0.620083 0.525391,-0.78125 C 16.038624,26.190397 16.516667,26 17.5,26 Z M 31,26.142578 c 0.629428,0.02816 0.819533,-0.04161 1.572266,0.123047 0.825196,0.180512 1.564277,0.4879 1.947265,0.787109 C 34.902519,27.351944 35,27.467593 35,28 c 0,0.716667 -0.151298,0.888798 -0.511719,1.181641 -0.360421,0.292842 -1.055232,0.578105 -1.857422,0.728515 -0.773472,0.145026 -0.995125,0.05874 -1.630859,0.05078 z"
       style="fill:#f5b0b0"
       id="path4" /></g></svg>
